X:1
T:Title
%%score { ( 1 3 ) | 2 }
L:1/8
Q:1/4=128
M:2/4
K:Eb
V:1 treble nm="Piano" snm="Pno."
V:3 treble 
V:2 bass 
V:1
 E>F | G[EB] [EB][Ec] | [EB]G EF | [EG][EG] FE | [DF]2 [DF]E | ^F/8G7/8[EB] [EB][Ec] | [EB]G EF | %7
 [EG][EG] [DF][DF] | [B,EG]2 [B,E]E | ^F/8G7/8[EB] [EB][Ec] | [EB]G EF | [EG][EG] FE | %12
 [DF]2 [DF]E | ^F/8G7/8[EB] [EB][Ec] | [EB]G EF | [EG][EG] [DF][DF] | [B,EG]2 [B,E]2 | %17
 [EA]2 [EA]2 | [Ec] [Ec]2 [Ec] | [EB][EB]^F/8G7/8E | [DFB]3 E/F/ | G[EB] [EB][Ec] | %22
 [EB]^F/8G7/8 E=F | [EG][EG] [DF][DF] | [B,CE]2 [B,E]2 | ^f/8[eg]7/8[eb] [eb][ec'] | %26
 [eb]^f/8g/f3/8 e=f | [eg][eg] fe | [df]2 [df]e | ^f/8g7/8[eb] [eb][ec'] | [eb]g ef | %31
 [eg][eg] [df][df] | [Be]2 [Be]2 | ^f/8[eg]7/8[eb] [eb][ec'] | [eb]^f/8g/f3/8 e=f | [eg][eg] fe | %36
 [df]2 [df]e | ^f/8g7/8[eb] [eb][ec'] | [eb]^f/8g/f3/8 e=f | [eg][eg] [df][df] | [Be]2 [Be]2 | %41
 [ea]2 [ea]2 | [ec'] [ec']2 [ec'] | [eb][eb]^f/8g7/8e | [df]2 fe/f/ | g[eb] [eb][ec'] | %46
 [eb]^f/8g/f3/8 e=f | [eg][eg] [df][df] |[M:4/8][Q:1/4=20] [Be]2[Q:1/4=135] B,C | %49
 [B,E][B,E][B,E]B, | _C/8=C7/8B,B,C | E2 E2 | E2 EF | [EG][EG][EG][EG] | [EB]GFE | [DF]2 [DF]2 | %56
 [DF]2 [Ec][Ec] | [EB]_G/8=G7/8FF | FEEE | CCCC | FEEC | B,B,EE | DDCE | [B,E]2 [B,E]2 | %64
 [B,E]2 B,C | [B,E][B,E][B,E]B, | _C/8=C7/8B,B,B, | E2 E2 | E2 EF | [EG][EG][EG][EG] | [EB]GFE | %71
 [DFB]2 [DFB]2 | [DFB]2 [DB][DB] | G/8G7/8[EG][EG][EG] | FEEE | CCCC | FEEC | B,B,EE | DDCD | %79
 [B,E]2 [B,E]2 | [B,E]2 [B,E]2 | Bc[Be][Be] | [Be]2 _c/8=c7/8B | Bc e2 | e2 e2 | ef[eg][eg] | %86
 [eg][eg][eb]g | fe [df]2 | [df]2 [df]2 | [ec'][ec'][eb]_g/8=g7/8 | fffe | eecc | ccfe | ecBB | %94
 eedd | cd[Q:1/4=40] [Be]2- | [Be]4 |] %97
V:2
!ped! z2!ped-up! |!ped! E,,E, B,,E,!ped-up! |!ped! E,,E, B,,E,!ped-up! |!ped! E,,E, B,,E,!ped-up! | %4
!ped! B,,,B,, F,,B,,!ped-up! |!ped! E,,E, B,,E,!ped-up! |!ped! E,,E, B,,E,!ped-up! | %7
!ped! E,,E, B,,,B,,!ped-up! |!ped! E,,E, B,,E,!ped-up! |!ped! E,,E, B,,E,!ped-up! | %10
!ped! E,,E, B,,E,!ped-up! |!ped! E,,E, B,,E,!ped-up! |!ped! B,,,B,, F,,B,,!ped-up! | %13
!ped! E,,E, B,,E,!ped-up! |!ped! E,,E, B,,E,!ped-up! |!ped! E,,E, B,,,B,,!ped-up! | %16
!ped! E,,E, B,,E,!ped-up! |!ped! A,,A, E,A,!ped-up! |!ped! A,,A, E,A,!ped-up! | %19
!ped! E,,E, B,,E,!ped-up! |!ped! B,,,B,, F,,B,,!ped-up! |!ped! E,,E, B,,E,!ped-up! | %22
!ped! E,,E, B,,E,!ped-up! |!ped! E,,E, B,,,B,,!ped-up! |!ped! E,,E, B,,E,!ped-up! | %25
!ped! E,,E, B,,E,!ped-up! |!ped! E,,E, B,,E,!ped-up! |!ped! E,,E, B,,E,!ped-up! | %28
!ped! B,,,B,, F,,B,,!ped-up! |!ped! E,,E, B,,E,!ped-up! |!ped! E,,E, B,,E,!ped-up! | %31
!ped! E,,E, B,,,B,,!ped-up! |!ped! E,,E, B,,E,!ped-up! |!ped! E,,E, B,,E,!ped-up! | %34
!ped! E,,E, B,,E,!ped-up! |!ped! E,,E, B,,E,!ped-up! |!ped! B,,,B,, F,,B,,!ped-up! | %37
!ped! E,,E, B,,E,!ped-up! |!ped! E,,E, B,,E,!ped-up! |!ped! E,,E, B,,,B,,!ped-up! | %40
!ped! E,,E, B,,E,!ped-up! |!ped! A,,A, E,A,!ped-up! |!ped! A,,A, E,A,!ped-up! | %43
!ped! E,,E, B,,E,!ped-up! |!ped! B,,,B,, F,,B,,!ped-up! |!ped! E,,E, B,,E,!ped-up! | %46
!ped! E,,E, B,,E,!ped-up! |!ped! E,,E, B,,,B,,!ped-up! |[M:4/8] [E,,E,]2!ped! z2!ped-up! | %49
!ped! E,,E,B,,E,!ped-up! | E,,!ped!E,B,,E,!ped-up! |!ped! E,,E,B,,E,!ped-up! | %52
!ped! E,,E,B,,E,!ped-up! |!ped! E,,E,B,,E,!ped-up! |!ped! E,,E,B,,E,!ped-up! | %55
!ped! B,,,B,,F,,B,,!ped-up! |!ped! B,,,B,,F,,B,,!ped-up! |!ped! E,,E,B,,E,!ped-up! | %58
!ped! E,,E,B,,E,!ped-up! |!ped! A,,A,E,A,!ped-up! |!ped! A,,A,E,A,!ped-up! | %61
!ped! E,,E,B,,E,!ped-up! |!ped! B,,,B,,F,,B,,!ped-up! |!ped! E,,E,B,,E,!ped-up! | %64
!ped! E,,E,B,,E,!ped-up! |!ped! E,,E,B,,E,!ped-up! | E,,!ped!E,B,,E,!ped-up! | %67
!ped! E,,E,B,,E,!ped-up! |!ped! E,,E,B,,E,!ped-up! |!ped! E,,E,B,,E,!ped-up! | %70
!ped! E,,E,B,,E,!ped-up! |!ped! B,,,B,,F,,B,,!ped-up! |!ped! B,,,B,,F,,B,,!ped-up! | %73
!ped! E,,E,B,,E,!ped-up! |!ped! E,,E,B,,E,!ped-up! |!ped! A,,A,E,A,!ped-up! | %76
!ped! A,,A,A,,A,!ped-up! |!ped! E,,E,E,,E,!ped-up! |!ped! B,,,B,,B,,,B,,!ped-up! | %79
!ped! E,,E,B,,E,!ped-up! |!ped! [E,,E,]2 [E,,E,]2 | E,,2!ped-up!!ped! E,,E, | %82
 B,,E,!ped-up!E,,!ped!E, | B,,E,!ped-up!!ped!E,,E, | B,,E,!ped-up!!ped!E,,E, | %85
 B,,E,!ped-up!!ped!E,,E, | B,,E,!ped-up!!ped!E,,E, | B,,E,!ped-up!!ped!B,,,B,, | %88
 F,,B,,!ped-up!!ped!B,,,B,, | F,,B,,!ped-up!!ped!E,,E, | B,,E,!ped-up!!ped!E,,E, | %91
 B,,E,!ped-up!!ped!A,,A, | E,A,!ped-up!!ped!A,,A, | E,A,!ped-up!!ped!E,,E, | %94
 B,,E,!ped-up!!ped!B,,,B,, | F,,B,,!ped-up!!ped! [E,,E,]2- | [E,,E,]4!ped-up! |] %97
V:3
 x2 | x4 | x4 | x4 | x4 | x4 | x4 | x4 | x4 | x4 | x4 | x4 | x4 | x4 | x4 | x4 | x4 | x4 | x4 | %19
 x4 | x4 | x4 | x4 | x4 | x4 | x4 | x4 | x4 | x4 | x4 | x4 | x4 | x4 | x4 | x4 | x4 | x4 | x4 | %38
 x4 | x4 | x4 | x4 | x4 | x4 | x4 | x4 | x4 | x4 |[M:4/8] x4 | x4 | x4 | x4 | x4 | x4 | x4 | x4 | %56
 x4 | x4 | x4 | x4 | x4 | x4 | x4 | x4 | x4 | x4 | x4 | x4 | x4 | x4 | x4 | x4 | x4 | E x3 | x4 | %75
 x4 | x4 | x4 | x4 | x4 | x4 | x4 | x4 | x4 | x4 | x4 | x4 | x4 | x4 | x4 | x4 | x4 | x4 | x4 | %94
 x4 | x4 | x4 |] %97

